X: 5
T:Bobbin Mill Reel
% Nottingham Music Database
S:Mick Peat
M:4/4
L:1/4
K:D
A/2|:"D"d/2c/2d/2e/2 fA|"G"Be "A"cA|"D"d/2c/2d/2e/2 f/2e/2d/2c/2|"Em"Be "A"aA|
"D"d/2c/2d/2e/2 f/2e/2d/2c/2|"G"Be "A"cA|"G"B/2c/2d/2B/2 "A"c/2d/2e/2c/2|\
"D"d2 dA:|
"G"B/2A/2B/2c/2 "D"dA|"G"B/2A/2B/2c/2 "D"dA|\
"G"B/2A/2B/2c/2 "D"d/2c/2d/2e/2|"E"f/2e/2d/2f/2 "A"ea|"G"B/2A/2B/2c/2 "D"dA|
"G"B/2A/2B/2c/2 "D"de/2f/2|"G"g/2f/2e/2g/2 "D"f/2e/2d/2f/2|1\
"E"e/2d/2c/2d/2 "A"e2:|2"A"e/2d/2c/2e/2 "D"d2||
<end>
<start>
